X: 3738
T: Bird In The Bush, The
R: reel
M: 4/4
K: Gmajor
|:d2eB d~B3|dBAB G2BG|EGBc BGGA|B/c/def gage|
d2eB d~B3|dBAF GAGE|DEGA B2eB|dBAA BAGA:|
|:B/c/def g2fg|a3f gfed|Bdef g3b|a3b g2ba|
~b3b agef|gage dBB2|DEGA B2eB|dBAA BAGA:|

